icons/solid/link.svg

<svg width="24" height="24" viewBox="0 0 24 24" fill="none" xmlns="http://www.w3.org/2000/svg">
<rect width="24" height="24" fill="white"/>
<path fill-rule="evenodd" clip-rule="evenodd" d="M5 1C2.79086 1 1 2.79086 1 5V19C1 21.2091 2.79086 23 5 23H19C21.2091 23 23 21.2091 23 19V5C23 2.79086 21.2091 1 19 1H5ZM8 7C7.17331 7 5.95553 7.23978 4.9157 7.98847C3.82487 8.77386 3 10.0741 3 12C3 13.9259 3.82487 15.2261 4.9157 16.0115C5.95553 16.7602 7.17331 17 8 17H10C10.5523 17 11 16.5523 11 16C11 15.4477 10.5523 15 10 15H8C7.49336 15 6.71113 14.8398 6.0843 14.3885C5.50847 13.9739 5 13.2741 5 12C5 10.7259 5.50847 10.0261 6.0843 9.61153C6.71113 9.16022 7.49336 9 8 9H10C10.5523 9 11 8.55229 11 8C11 7.44772 10.5523 7 10 7H8ZM14 7C13.4477 7 13 7.44772 13 8C13 8.55229 13.4477 9 14 9H16C16.5066 9 17.2889 9.16022 17.9157 9.61153C18.4915 10.0261 19 10.7259 19 12C19 13.2741 18.4915 13.9739 17.9157 14.3885C17.2889 14.8398 16.5066 15 16 15H14C13.4477 15 13 15.4477 13 16C13 16.5523 13.4477 17 14 17H16C16.8267 17 18.0445 16.7602 19.0843 16.0115C20.1751 15.2261 21 13.9259 21 12C21 10.0741 20.1751 8.77386 19.0843 7.98847C18.0445 7.23978 16.8267 7 16 7H14ZM9 11C8.44772 11 8 11.4477 8 12C8 12.5523 8.44772 13 9 13H15C15.5523 13 16 12.5523 16 12C16 11.4477 15.5523 11 15 11H9Z" fill="currentColor"/>
</svg>

<svg width="24" height="24" fill="none" xmlns="http://www.w3.org/2000/svg"><path fill="#fff" d="M0 0h24v24H0z"/><path fill-rule="evenodd" clip-rule="evenodd" d="M5 1a4 4 0 00-4 4v14a4 4 0 004 4h14a4 4 0 004-4V5a4 4 0 00-4-4H5zm3 6c-.827 0-2.044.24-3.084.988C3.825 8.774 3 10.074 3 12c0 1.926.825 3.226 1.916 4.012C5.956 16.76 7.173 17 8 17h2a1 1 0 100-2H8c-.507 0-1.289-.16-1.916-.611C5.508 13.974 5 13.274 5 12c0-1.274.508-1.974 1.084-2.388C6.711 9.16 7.494 9 8 9h2a1 1 0 100-2H8zm6 0a1 1 0 100 2h2c.507 0 1.289.16 1.916.612C18.49 10.026 19 10.726 19 12c0 1.274-.509 1.974-1.084 2.389-.627.45-1.41.611-1.916.611h-2a1 1 0 100 2h2c.827 0 2.044-.24 3.084-.988C20.175 15.226 21 13.926 21 12c0-1.926-.825-3.226-1.916-4.012C18.044 7.24 16.827 7 16 7h-2zm-5 4a1 1 0 100 2h6a1 1 0 100-2H9z" fill="currentColor"/></svg>
